X: 6
T: Level6
R: reel
M: 4/4
L: 1/8
K: Edor
|: "Em" ef ed Bc d2 | "G" ef ed B2 A2 | "A" ef ed Bc d2 | "Bm" dB cd e2 e2 :|
|: "Em" ef ge gf ed | "D" ef ed B2 AB | "C" ef ge gf ed | "G" dB cd "A" e2 e2 :|
